X: 34589
T: Rita's
R: jig
M: 6/8
K: Gmajor
~D3 AFd|~D3 GEc|dDD FED|cEF GFE|
~D3 AFd|~E2F GEc|dcB cAA|BEF GFE:|
dcB cAA|dfd efg|fed cAA|BEF GFE|
dcB cAA|dfd efg|age (3gfe d|cEF GFE:|

